public/images/icons/flying/crypto/bnb.svg

<?xml version="1.0" encoding="utf-8"?>
<!-- Generator: Adobe Illustrator 26.0.1, SVG Export Plug-In . SVG Version: 6.00 Build 0)  -->
<svg version="1.1" id="Layer_1" xmlns="http://www.w3.org/2000/svg" xmlns:xlink="http://www.w3.org/1999/xlink" x="0px" y="0px"
	 viewBox="0 0 2496 2496" style="enable-background:new 0 0 2496 2496;" xml:space="preserve">
<g>
	<path style="fill-rule:evenodd;clip-rule:evenodd;fill:#F0B90B;" d="M1248,0c689.3,0,1248,558.7,1248,1248s-558.7,1248-1248,1248
		S0,1937.3,0,1248S558.7,0,1248,0L1248,0z"/>
	<path style="fill:#FFFFFF;" d="M685.9,1248l0.9,330l280.4,165v193.2l-444.5-260.7v-524L685.9,1248L685.9,1248z M685.9,918v192.3
		l-163.3-96.6V821.4l163.3-96.6l164.1,96.6L685.9,918L685.9,918z M1084.3,821.4l163.3-96.6l164.1,96.6L1247.6,918L1084.3,821.4
		L1084.3,821.4z"/>
	<path style="fill:#FFFFFF;" d="M803.9,1509.6v-193.2l163.3,96.6v192.3L803.9,1509.6L803.9,1509.6z M1084.3,1812.2l163.3,96.6
		l164.1-96.6v192.3l-164.1,96.6l-163.3-96.6V1812.2L1084.3,1812.2z M1645.9,821.4l163.3-96.6l164.1,96.6v192.3l-164.1,96.6V918
		L1645.9,821.4L1645.9,821.4L1645.9,821.4z M1809.2,1578l0.9-330l163.3-96.6v524l-444.5,260.7v-193.2L1809.2,1578L1809.2,1578
		L1809.2,1578z"/>
	<polygon style="fill:#FFFFFF;" points="1692.1,1509.6 1528.8,1605.3 1528.8,1413 1692.1,1316.4 1692.1,1509.6 	"/>
	<path style="fill:#FFFFFF;" d="M1692.1,986.4l0.9,193.2l-281.2,165v330.8l-163.3,95.7l-163.3-95.7v-330.8l-281.2-165V986.4
		L968,889.8l279.5,165.8l281.2-165.8l164.1,96.6H1692.1L1692.1,986.4z M803.9,656.5l443.7-261.6l444.5,261.6l-163.3,96.6
		l-281.2-165.8L967.2,753.1L803.9,656.5L803.9,656.5z"/>
</g>
</svg>

<svg width="2496" height="2496" viewBox="0 0 2496 2496" fill="none" xmlns="http://www.w3.org/2000/svg">
<g clip-path="url(#clip0_1_20)">
<path fill-rule="evenodd" clip-rule="evenodd" d="M1248 0C1937.3 0 2496 558.7 2496 1248C2496 1937.3 1937.3 2496 1248 2496C558.7 2496 0 1937.3 0 1248C0 558.7 558.7 0 1248 0Z" fill="#F0B90B"/>
<path d="M685.9 1248L686.8 1578L967.2 1743V1936.2L522.7 1675.5V1151.5L685.9 1248ZM685.9 918V1110.3L522.6 1013.7V821.4L685.9 724.8L850 821.4L685.9 918ZM1084.3 821.4L1247.6 724.8L1411.7 821.4L1247.6 918L1084.3 821.4Z" fill="white"/>
<path d="M803.9 1509.6V1316.4L967.2 1413V1605.3L803.9 1509.6ZM1084.3 1812.2L1247.6 1908.8L1411.7 1812.2V2004.5L1247.6 2101.1L1084.3 2004.5V1812.2ZM1645.9 821.4L1809.2 724.8L1973.3 821.4V1013.7L1809.2 1110.3V918L1645.9 821.4ZM1809.2 1578L1810.1 1248L1973.4 1151.4V1675.4L1528.9 1936.1V1742.9L1809.2 1578Z" fill="white"/>
<path d="M1692.1 1509.6L1528.8 1605.3V1413L1692.1 1316.4V1509.6Z" fill="white"/>
<path d="M1692.1 986.4L1693 1179.6L1411.8 1344.6V1675.4L1248.5 1771.1L1085.2 1675.4V1344.6L804 1179.6V986.4L968 889.8L1247.5 1055.6L1528.7 889.8L1692.8 986.4H1692.1ZM803.9 656.5L1247.6 394.9L1692.1 656.5L1528.8 753.1L1247.6 587.3L967.2 753.1L803.9 656.5Z" fill="white"/>
</g>
<defs>
<clipPath id="clip0_1_20">
<rect width="2496" height="2496" fill="white"/>
</clipPath>
</defs>
</svg>
